X: 14
T: The Lady of the Lake
R: jig
M: 6/8
L: 1/8
Z: 2010 John Chambers <jc:trillian.mit.edu>
B: Anonymous manuscript tune book (1800-1840) p.27
F: http://www.asaplive.com/archive/browse_by_collection.asp
N: The asaplive.com web site is complex, and links to its files don't usually work.
K: G
|: B>cA G2D | E2D G2D | B>cA G2B | A2d d3  |\
   B>cA G2D | E2D G2D | G2D  B2A | GBA G3  :|
|: B>cB B2A | B2c d3  | g2f  e2d | dcB A2A |\
   B>cB B2A | B2c d3  | g2f  a2g | fae d2c :|


%%sep 5 1 500

